static/icons/open_source.svg

<svg width="120" height="80" viewBox="0 0 120 80" fill="none" xmlns="http://www.w3.org/2000/svg">
<path d="M98.5669 57.4167V66.3796C98.5669 68.0234 97.1911 69.3933 95.4917 69.3933H24.682C22.9826 69.3933 21.5664 68.0625 21.5664 66.3796V57.4167H98.5669Z" fill="#C1C1C1"/>
<path d="M95.4513 69.9413H24.6821C22.659 69.9413 21 68.3366 21 66.3797V57.4168C21 57.1037 21.2428 56.8689 21.5665 56.8689H98.5669C98.8906 56.8689 99.1334 57.1037 99.1334 57.4168V66.3797C99.1334 68.3366 97.4744 69.9022 95.4513 69.9413ZM22.133 57.9648V66.3797C22.133 67.7495 23.2659 68.8454 24.6821 68.8454H95.4513C96.8675 68.8454 98.0005 67.7495 98.0005 66.3797V57.9648H22.133Z" fill="#323C6B"/>
<path d="M98.5669 14.7162V57.4168H21.5664V14.7162C21.5664 13.0724 22.9826 11.7025 24.682 11.7025H95.4512C97.1507 11.7025 98.5669 13.0332 98.5669 14.7162Z" fill="#EBECE9"/>
<path d="M98.5669 57.9648H21.5665C21.2428 57.9648 21 57.7299 21 57.4168V14.7162C21 12.7593 22.659 11.1546 24.6821 11.1937H95.4513C97.4745 11.1937 99.093 12.7984 99.093 14.7162V57.4168C99.1334 57.6908 98.8502 57.9648 98.5669 57.9648ZM22.133 56.8689H98.0005V14.7162C98.0005 13.3463 96.8675 12.2896 95.4513 12.2504H24.6821C23.2659 12.2504 22.133 13.3463 22.133 14.7162V56.8689Z" fill="#323C6B"/>
<path d="M98.567 57.4167V66.3796C98.567 68.0234 97.1913 69.3933 95.4918 69.3933H94.804V57.4167H98.567Z" fill="#A4A4A4"/>
<path d="M98.5669 14.7162V57.4169H94.8038V19.0607C94.8038 17.4168 93.4281 16.0861 91.7287 16.0861H21.5664V14.7554C21.5664 13.1116 22.9826 11.7417 24.682 11.7417H95.4512C97.1507 11.7025 98.5669 13.0333 98.5669 14.7162Z" fill="#C1C1C1"/>
<path d="M72.5899 79.452L69.7979 69.3933H50.3354L47.5435 79.452H72.5899Z" fill="#C1C1C1"/>
<path d="M72.5899 80.0001H47.5435C47.2198 80.0001 46.9771 79.7652 46.9771 79.4521C46.9771 79.413 46.9771 79.3738 46.9771 79.2956L49.769 69.2368C49.8499 69.002 50.0522 68.8455 50.3355 68.8455H69.798C70.0408 68.8455 70.2835 69.002 70.3645 69.2368L73.1564 79.2956C73.2373 79.5695 73.0755 79.8826 72.7518 79.9609C72.6708 80.0001 72.6304 80.0001 72.5899 80.0001ZM48.2719 78.9042H71.8211L69.3529 69.9414H50.7805L48.2719 78.9042Z" fill="#244583"/>
<path d="M76.5957 80H43.5377C43.214 80 42.9712 79.7651 42.9712 79.452C42.9712 79.1389 43.214 78.9041 43.5377 78.9041H76.5552C76.8789 78.9041 77.1217 79.1389 77.1217 79.452C77.1621 79.7651 76.8789 80 76.5957 80Z" fill="#244583"/>
<path d="M95.4513 69.9413H24.6821C22.659 69.9413 21 68.3366 21 66.3797V57.4168C21 57.1037 21.2428 56.8689 21.5665 56.8689H98.5669C98.8906 56.8689 99.1334 57.1037 99.1334 57.4168V66.3797C99.1334 68.3366 97.4744 69.9022 95.4513 69.9413ZM22.133 57.9648V66.3797C22.133 67.7495 23.2659 68.8454 24.6821 68.8454H95.4513C96.8675 68.8454 98.0005 67.7495 98.0005 66.3797V57.9648H22.133Z" fill="#244583"/>
<path d="M98.5669 57.9648H21.5665C21.2428 57.9648 21 57.7299 21 57.4168V14.7162C21 12.7593 22.659 11.1546 24.6821 11.1937H95.4513C97.4745 11.1937 99.093 12.7984 99.093 14.7162V57.4168C99.1334 57.6908 98.8502 57.9648 98.5669 57.9648ZM22.133 56.8689H98.0005V14.7162C98.0005 13.3463 96.8675 12.2896 95.4513 12.2504H24.6821C23.2659 12.2504 22.133 13.3463 22.133 14.7162V56.8689Z" fill="#244583"/>
<path d="M60.0466 65.4793C61.231 65.4793 62.1911 64.5506 62.1911 63.4049C62.1911 62.2593 61.231 61.3306 60.0466 61.3306C58.8622 61.3306 57.9021 62.2593 57.9021 63.4049C57.9021 64.5506 58.8622 65.4793 60.0466 65.4793Z" fill="#EEEFEE"/>
<path d="M60.0464 66.0273C58.5493 66.0273 57.3354 64.8532 57.3354 63.405C57.3354 61.9569 58.5493 60.7827 60.0464 60.7827C61.5436 60.7827 62.7574 61.9569 62.7574 63.405C62.7574 64.8532 61.5436 66.0273 60.0464 66.0273ZM60.0464 61.8395C59.1563 61.8395 58.4684 62.544 58.4684 63.3659C58.4684 64.2269 59.1967 64.8923 60.0464 64.8923C60.9366 64.8923 61.6245 64.1878 61.6245 63.3659C61.665 62.544 60.9366 61.8395 60.0464 61.8395Z" fill="#244583"/>
<path d="M45.3585 67.1624H42.8094C42.4048 67.1624 42.0811 66.8493 42.0811 66.4579C42.0811 66.0665 42.4048 65.7534 42.8094 65.7534H45.3585C45.7632 65.7534 46.0869 66.0665 46.0869 66.4579C46.1273 66.8102 45.7632 67.1624 45.3585 67.1624Z" fill="white"/>
<path d="M39.5723 67.1624H29.0115C28.6069 67.1624 28.2832 66.8493 28.2832 66.4579C28.2832 66.0665 28.6069 65.7534 29.0115 65.7534H39.5723C39.9769 65.7534 40.3006 66.0665 40.3006 66.4579C40.3006 66.8102 39.9769 67.1624 39.5723 67.1624Z" fill="white"/>
<path d="M78.5784 2.73973V22.4658C78.5784 23.7965 77.5668 24.8924 76.3529 24.8924H44.1446C42.9308 24.8924 41.9192 23.7965 41.9192 22.4658V2.73973C41.9192 1.409 42.9308 0.31311 44.1446 0.31311H76.3529C77.5668 0.31311 78.5784 1.409 78.5784 2.73973Z" fill="#FED19A"/>
<path d="M76.3529 0.31311H44.1446C42.9308 0.31311 41.9192 1.33072 41.9192 2.54403V3.32681H73.3587C74.5726 3.32681 75.5841 4.34442 75.5841 5.55773V22.8572H76.3529C77.5668 22.8572 78.5784 21.8395 78.5784 20.6262V2.54403C78.5784 1.33072 77.5668 0.31311 76.3529 0.31311Z" fill="#FEBF2D"/>
<path d="M76.3529 23.8748H44.1446C42.6475 23.8748 41.4336 22.6223 41.4336 21.0959V2.77887C41.4336 1.25245 42.6475 0 44.1446 0H76.3529C77.85 0 79.0639 1.25245 79.0639 2.77887V21.0959C79.0639 22.6223 77.85 23.8748 76.3529 23.8748ZM44.1446 0.978474C43.1735 0.978474 42.4047 1.76125 42.4047 2.73973V21.0568C42.4047 22.0352 43.1735 22.818 44.1446 22.818H76.3529C77.324 22.818 78.0928 22.0352 78.0928 21.0568V2.77887C78.0928 1.80039 77.324 1.01761 76.3529 1.01761L44.1446 0.978474Z" fill="#244583"/>
<path d="M44.5493 13.4638C44.1851 13.4638 43.9019 13.1898 43.9019 12.8376V5.44031C43.9019 5.08806 44.1851 4.81409 44.5493 4.81409C44.9134 4.81409 45.1967 5.08806 45.1967 5.44031V12.8376C45.1562 13.1898 44.873 13.4638 44.5493 13.4638Z" fill="white"/>
<path d="M56.0406 20.861L54.058 16.7906C53.6533 16.0078 52.8441 15.4598 51.9135 15.4598H38.6012C37.3064 15.4598 36.2544 16.4775 36.2544 17.7299V51.272C36.2544 52.5245 37.3064 53.5421 38.6012 53.5421H81.5726C82.8674 53.5421 83.9194 52.5245 83.9194 51.272V24.4618C83.9194 23.2094 82.8674 22.1917 81.5726 22.1917H58.1447C57.2545 22.1917 56.4048 21.6829 56.0406 20.861Z" fill="#9FEFDE"/>
<path d="M58.1446 22.1917H54.7862C53.8555 22.1917 53.0463 21.6829 52.6417 20.9001L50.659 16.8297C50.2948 16.0469 49.4451 15.5381 48.5549 15.5381H51.8729C52.8035 15.5381 53.6128 16.0469 54.0174 16.8297L56.0405 20.9001C56.4047 21.6829 57.2544 22.1917 58.1446 22.1917Z" fill="#24C4A1"/>
<path d="M83.9194 24.4618V51.3503C83.9194 52.6028 82.8674 53.6204 81.5726 53.6204H78.2546C79.5494 53.6204 80.6015 52.6028 80.6015 51.3503V24.4618C80.6015 23.2094 79.5494 22.1918 78.2546 22.1918H81.5726C82.8674 22.1918 83.9194 23.2094 83.9194 24.4618Z" fill="#24C4A1"/>
<path d="M83.9187 30.3326H36.2537C35.93 30.3326 35.6467 30.0586 35.6467 29.7455C35.6467 29.4324 35.93 29.1584 36.2537 29.1584H83.9592C84.2829 29.1584 84.5661 29.4324 84.5661 29.7455C84.5661 30.0586 84.2829 30.3326 83.9187 30.3326Z" fill="#244583"/>
<path d="M81.5725 54.2074H38.6012C36.9422 54.2074 35.6069 52.9158 35.6069 51.3111V17.8081C35.6069 16.2035 36.9422 14.9119 38.6012 14.9119H51.9134C53.0463 14.9119 54.0984 15.5381 54.6244 16.5557L56.6071 20.6262C56.8903 21.2132 57.4972 21.6046 58.1851 21.6046H81.613C83.272 21.6046 84.6072 22.8962 84.6072 24.5009V51.3894C84.5263 52.9549 83.2315 54.2074 81.5725 54.2074ZM38.6012 16.1252C37.6301 16.1252 36.8613 16.8688 36.8613 17.8081V51.3503C36.8613 52.2896 37.6301 53.0332 38.6012 53.0332H81.5725C82.5436 53.0332 83.3124 52.2896 83.3124 51.3503V24.4618C83.3124 23.5224 82.5436 22.7788 81.5725 22.7788H58.1446C57.0117 22.7788 55.9597 22.1526 55.4741 21.135L53.4914 17.0645C53.2082 16.4774 52.6013 16.086 51.9134 16.086L38.6012 16.1252Z" fill="#244583"/>
<path d="M76.0291 24.814H76.3528C76.8384 24.814 77.2025 25.2054 77.1621 25.675C77.1621 26.1055 76.7979 26.4578 76.3528 26.4578H76.0291C75.5436 26.4578 75.1794 26.0664 75.2199 25.5967C75.2199 25.2054 75.584 24.8531 76.0291 24.814Z" fill="white"/>
<path d="M62.6766 24.814H72.8327C73.3183 24.814 73.6824 25.2054 73.642 25.675C73.642 26.1055 73.2778 26.4578 72.8327 26.4578H62.6766C62.191 26.4578 61.8269 26.0664 61.8673 25.5967C61.8673 25.2054 62.2315 24.8531 62.6766 24.814Z" fill="white"/>
<path d="M58.4685 14.9119C58.2258 14.9119 58.0234 14.7162 58.0234 14.4814C58.0234 14.4031 58.0234 14.364 58.0639 14.3249L61.9483 5.94912C62.0697 5.71429 62.3125 5.63601 62.5553 5.71429C62.798 5.83171 62.879 6.06654 62.798 6.30138L58.9136 14.6771C58.7922 14.8337 58.6304 14.9119 58.4685 14.9119Z" fill="#244583"/>
<path d="M55.636 13.66C55.5147 13.66 55.3933 13.6209 55.3123 13.5426L52.2776 10.6072C52.1158 10.4506 52.1158 10.1375 52.2776 9.98094L55.3123 7.04552C55.4742 6.88896 55.7979 6.88896 55.9597 7.04552C56.1216 7.20207 56.1216 7.47605 55.9597 7.67174L53.2487 10.2941L55.9597 12.9164C56.1216 13.0729 56.1216 13.386 55.9597 13.5426C55.8788 13.6209 55.7574 13.66 55.636 13.66Z" fill="#244583"/>
<path d="M65.1851 13.6594C64.9423 13.6594 64.74 13.4637 64.74 13.2289C64.74 13.1114 64.7805 12.994 64.8614 12.9158L67.5724 10.2934L64.8614 7.67113C64.6995 7.51458 64.6995 7.20146 64.8614 7.04491C65.0232 6.88835 65.3065 6.88835 65.5088 7.04491L68.5435 9.98033C68.7053 10.1369 68.7053 10.45 68.5435 10.6066L65.5088 13.542C65.4279 13.6203 65.3065 13.6594 65.1851 13.6594Z" fill="#244583"/>
<path d="M67.021 43.4452L69.0945 45.1037L67.6989 47.418L65.1468 46.5308C64.3095 47.3022 63.2727 47.8808 62.1562 48.1894L61.6777 50.7736H58.9263L58.4876 48.1894C57.3711 47.8808 56.3344 47.3022 55.497 46.5308L52.945 47.4565L51.5493 45.1423L53.6228 43.4837C53.3437 42.4037 53.3437 41.2466 53.6228 40.1666L51.5493 38.5081L52.945 36.1938L55.497 37.1195C56.3344 36.3095 57.3711 35.7695 58.4876 35.461L58.9661 32.8767H61.7176L62.1961 35.461C63.3126 35.7695 64.3493 36.3481 65.1867 37.1195L67.7387 36.2324L69.1344 38.5466L67.0609 40.2052C67.3001 41.208 67.3001 42.3266 67.021 43.4452Z" fill="#24C4A1"/>
<path d="M60.4918 45.088C62.3242 45.088 63.8097 43.6511 63.8097 41.8786C63.8097 40.1061 62.3242 38.6692 60.4918 38.6692C58.6593 38.6692 57.1738 40.1061 57.1738 41.8786C57.1738 43.6511 58.6593 45.088 60.4918 45.088Z" fill="#EBECE9"/>
<path d="M60.4917 45.4012C58.4686 45.4012 56.8501 43.8357 56.8501 41.8787C56.8501 39.9218 58.4686 38.3562 60.4917 38.3562C62.5149 38.3562 64.1334 39.9218 64.1334 41.8787C64.1334 43.8357 62.5149 45.4012 60.4917 45.4012ZM60.4917 38.9433C58.8328 38.9433 57.457 40.274 57.457 41.8787C57.457 43.4834 58.8328 44.8141 60.4917 44.8141C62.1507 44.8141 63.5264 43.4834 63.5264 41.8787C63.5264 40.274 62.1507 38.9433 60.4917 38.9433Z" fill="#244583"/>
<path d="M61.9079 51.311H59.1159C58.9541 51.311 58.8327 51.1936 58.8327 51.0762L58.3876 48.6496C57.3356 48.3365 56.3645 47.7885 55.5552 47.0449L53.1679 47.906C53.0465 47.9451 52.8847 47.906 52.8038 47.7885L51.3876 45.4402C51.3066 45.3228 51.3471 45.1662 51.4685 45.0879L53.4107 43.5224C53.1679 42.4656 53.1679 41.4089 53.4107 40.3521L51.4685 38.7866C51.3471 38.7083 51.3471 38.5517 51.3876 38.4343L52.8038 36.086C52.8847 35.9686 53.0465 35.8903 53.1679 35.9686L55.5552 36.8296C56.3645 36.086 57.3356 35.538 58.3876 35.2249L58.8327 32.7983C58.8732 32.6418 58.9945 32.5635 59.1159 32.5635H61.9079C62.0697 32.5635 62.1911 32.6809 62.1911 32.7983L62.6362 35.2249C63.6882 35.538 64.6593 36.086 65.4686 36.7905L67.8559 35.9294C67.9773 35.8903 68.1391 35.9294 68.22 36.0468L69.6362 38.3952C69.7171 38.5126 69.6767 38.6692 69.5553 38.7474L67.6131 40.313C67.8559 41.3697 67.8559 42.4265 67.6131 43.4832L69.5553 45.0488C69.6767 45.1271 69.6767 45.2836 69.6362 45.4011L68.2605 47.7494C68.1796 47.8668 68.0177 47.906 67.8963 47.8668L65.4686 47.0058C64.6593 47.7494 63.6882 48.2582 62.6362 48.5713L62.1911 50.9979C62.1506 51.1936 62.0292 51.311 61.9079 51.311ZM59.3587 50.724H61.6246L62.0292 48.3365C62.0292 48.2191 62.1506 48.1408 62.2316 48.1017C63.324 47.8277 64.3356 47.2406 65.1449 46.497C65.2258 46.4187 65.3472 46.3795 65.4686 46.4187L67.8154 47.2406L68.9484 45.3228L67.0466 43.7964C66.9657 43.7572 66.9252 43.6398 66.9252 43.5615C66.9252 43.5224 66.9252 43.5224 66.9252 43.4832C67.2085 42.4265 67.2085 41.2915 66.9252 40.2347C66.9252 40.1956 66.9252 40.1956 66.9252 40.1564C66.9252 40.0782 66.9657 39.9999 67.0466 39.9216L68.9484 38.3952L67.8154 36.4774L65.4686 37.2993C65.3472 37.3384 65.2258 37.2993 65.1449 37.221C64.3356 36.4382 63.324 35.8903 62.2316 35.6163C62.1102 35.5772 62.0292 35.4989 62.0292 35.3815L61.6246 32.994H59.3587L58.9541 35.3815C58.9541 35.4989 58.8327 35.5772 58.7518 35.6163C57.6593 35.8903 56.6477 36.4774 55.8789 37.221C55.798 37.2993 55.6766 37.3384 55.5552 37.2993L53.2084 36.4774L52.0754 38.3952L53.9772 39.9216C54.0581 39.9607 54.0986 40.0782 54.0986 40.1564C54.0986 40.1956 54.0986 40.1956 54.0986 40.2347C53.8153 41.2915 53.8153 42.4265 54.0986 43.4832C54.0986 43.5224 54.0986 43.5224 54.0986 43.5615C54.0986 43.6398 54.0581 43.7181 53.9772 43.7964L52.0754 45.3228L53.2084 47.2406L55.5552 46.4187C55.6766 46.3795 55.798 46.4187 55.8789 46.497C56.6882 47.2797 57.6593 47.8277 58.7518 48.1017C58.8732 48.1408 58.9541 48.2191 58.9541 48.3365L59.3587 50.724Z" fill="#244583"/>
</svg>

<svg xmlns="http://www.w3.org/2000/svg" xmlns:xlink="http://www.w3.org/1999/xlink" width="120" height="80" fill="none" xmlns:v="https://vecta.io/nano"><path d="M98.567 57.417v8.963c0 1.644-1.376 3.014-3.075 3.014h-70.81c-1.699 0-3.116-1.331-3.116-3.014v-8.963h77.001z" fill="#c1c1c1"/><use xlink:href="#B" fill="#323c6b"/><path d="M98.567 14.716v42.701h-77V14.716c0-1.644 1.416-3.014 3.116-3.014h70.769c1.7 0 3.116 1.331 3.116 3.014z" fill="#ebece9"/><use xlink:href="#C" fill="#323c6b"/><path d="M98.567 57.417v8.963c0 1.644-1.376 3.014-3.075 3.014h-.688V57.417h3.763z" fill="#a4a4a4"/><path d="M98.567 14.716v42.701h-3.763V19.061c0-1.644-1.376-2.975-3.075-2.975H21.566v-1.331c0-1.644 1.416-3.014 3.116-3.014h70.769c1.7-.039 3.116 1.292 3.116 2.975zM72.59 79.452l-2.792-10.059H50.335l-2.792 10.059H72.59z" fill="#c1c1c1"/><g fill="#244583"><path d="M72.59 80H47.544c-.324 0-.566-.235-.566-.548v-.157l2.792-10.059a.57.57 0 0 1 .567-.391h19.463c.243 0 .486.156.567.391l2.792 10.059c.081.274-.081.587-.405.665-.081.039-.121.039-.162.039zm-24.318-1.096h23.549l-2.468-8.963H50.781l-2.509 8.963z"/><path d="M76.596 80H43.538c-.324 0-.566-.235-.566-.548s.243-.548.566-.548h33.018c.324 0 .567.235.567.548.04.313-.243.548-.526.548z"/><use xlink:href="#B"/><use xlink:href="#C"/></g><path d="M60.047 65.479c1.184 0 2.145-.929 2.145-2.074s-.96-2.074-2.145-2.074-2.145.929-2.145 2.074.96 2.074 2.145 2.074z" fill="#eeefee"/><path d="M60.046 66.027c-1.497 0-2.711-1.174-2.711-2.622s1.214-2.622 2.711-2.622 2.711 1.174 2.711 2.622-1.214 2.622-2.711 2.622zm0-4.188c-.89 0-1.578.704-1.578 1.526 0 .861.728 1.526 1.578 1.526.89 0 1.578-.705 1.578-1.526.041-.822-.688-1.526-1.578-1.526z" fill="#244583"/><path d="M45.359 67.162H42.81c-.405 0-.728-.313-.728-.705s.324-.704.728-.704h2.549c.405 0 .728.313.728.704.04.352-.324.705-.728.705zm-5.787 0h-10.56c-.405 0-.728-.313-.728-.705s.324-.704.728-.704h10.561c.405 0 .728.313.728.704 0 .352-.324.705-.728.705z" fill="#fff"/><path d="M78.578 2.74v19.726c0 1.331-1.012 2.427-2.225 2.427H44.145c-1.214 0-2.225-1.096-2.225-2.427V2.74c0-1.331 1.012-2.427 2.225-2.427h32.208c1.214 0 2.225 1.096 2.225 2.427z" fill="#fed19a"/><path d="M76.353.313H44.145c-1.214 0-2.225 1.018-2.225 2.231v.783h31.44c1.214 0 2.225 1.018 2.225 2.231v17.299h.769c1.214 0 2.225-1.018 2.225-2.231V2.544c0-1.213-1.012-2.231-2.225-2.231z" fill="#febf2d"/><path d="M76.353 23.875H44.145c-1.497 0-2.711-1.253-2.711-2.779V2.779C41.434 1.252 42.648 0 44.145 0h32.208c1.497 0 2.711 1.252 2.711 2.779v18.317c0 1.526-1.214 2.779-2.711 2.779zM44.145.978a1.74 1.74 0 0 0-1.74 1.761v18.317a1.74 1.74 0 0 0 1.74 1.761h32.208a1.74 1.74 0 0 0 1.74-1.761V2.779a1.74 1.74 0 0 0-1.74-1.761L44.145.978z" fill="#244583"/><path d="M44.549 13.464c-.364 0-.647-.274-.647-.626V5.44c0-.352.283-.626.647-.626s.647.274.647.626v7.397c-.041.352-.324.626-.647.626z" fill="#fff"/><path d="M56.041 20.861l-1.983-4.07c-.405-.783-1.214-1.331-2.145-1.331H38.601c-1.295 0-2.347 1.018-2.347 2.27v33.542c0 1.253 1.052 2.27 2.347 2.27h42.971c1.295 0 2.347-1.018 2.347-2.27v-26.81c0-1.252-1.052-2.27-2.347-2.27H58.145c-.89 0-1.74-.509-2.104-1.331z" fill="#9fefde"/><path d="M58.145 22.192h-3.358c-.931 0-1.74-.509-2.145-1.292l-1.983-4.07c-.364-.783-1.214-1.292-2.104-1.292h3.318c.931 0 1.74.509 2.145 1.292l2.023 4.07c.364.783 1.214 1.292 2.104 1.292zm25.774 2.27V51.35c0 1.253-1.052 2.27-2.347 2.27h-3.318c1.295 0 2.347-1.018 2.347-2.27V24.462c0-1.252-1.052-2.27-2.347-2.27h3.318c1.295 0 2.347 1.018 2.347 2.27z" fill="#24c4a1"/><g fill="#244583"><path d="M83.919 30.333H36.254c-.324 0-.607-.274-.607-.587s.283-.587.607-.587h47.705c.324 0 .607.274.607.587s-.283.587-.647.587z"/><path d="M81.573 54.207H38.601c-1.659 0-2.994-1.292-2.994-2.896V17.808c0-1.605 1.335-2.896 2.994-2.896h13.312a3.05 3.05 0 0 1 2.711 1.644l1.983 4.07c.283.587.89.978 1.578.978h23.428c1.659 0 2.994 1.292 2.994 2.896v26.889c-.081 1.566-1.376 2.818-3.035 2.818zM38.601 16.125c-.971 0-1.74.744-1.74 1.683V51.35c0 .939.769 1.683 1.74 1.683h42.971c.971 0 1.74-.744 1.74-1.683V24.462c0-.939-.769-1.683-1.74-1.683H58.145c-1.133 0-2.185-.626-2.67-1.644l-1.983-4.071c-.283-.587-.89-.979-1.578-.979l-13.312.039z"/></g><path d="M76.029 24.814h.324a.79.79 0 0 1 .809.861c0 .43-.364.783-.809.783h-.324a.79.79 0 0 1-.809-.861c0-.391.364-.744.809-.783zm-13.352 0h10.156a.79.79 0 0 1 .809.861c0 .43-.364.783-.809.783H62.677a.79.79 0 0 1-.809-.861c0-.391.364-.744.809-.783z" fill="#fff"/><path d="M58.469 14.912c-.243 0-.445-.196-.445-.43 0-.078 0-.117.04-.157l3.884-8.376c.121-.235.364-.313.607-.235.243.117.324.352.243.587l-3.884 8.376c-.121.157-.283.235-.445.235zm-2.833-1.252a.47.47 0 0 1-.324-.117l-3.035-2.935c-.162-.157-.162-.47 0-.626l3.035-2.935c.162-.157.486-.157.647 0s.162.431 0 .626l-2.711 2.622 2.711 2.622c.162.157.162.47 0 .626a.47.47 0 0 1-.324.117zm9.549-.001c-.243 0-.445-.196-.445-.431a.44.44 0 0 1 .121-.313l2.711-2.622-2.711-2.622c-.162-.157-.162-.47 0-.626s.445-.157.647 0l3.035 2.935c.162.157.162.47 0 .626l-3.035 2.935a.47.47 0 0 1-.324.117z" fill="#244583"/><path d="M67.021 43.445l2.073 1.659-1.396 2.314-2.552-.887a7.32 7.32 0 0 1-2.991 1.659l-.478 2.584h-2.751l-.439-2.584a7.32 7.32 0 0 1-2.991-1.659l-2.552.926-1.396-2.314 2.073-1.659c-.279-1.08-.279-2.237 0-3.317l-2.073-1.659 1.396-2.314 2.552.926c.837-.81 1.874-1.35 2.991-1.659l.478-2.584h2.752l.479 2.584a7.32 7.32 0 0 1 2.991 1.659l2.552-.887 1.396 2.314-2.073 1.659c.239 1.003.239 2.121-.04 3.24z" fill="#24c4a1"/><path d="M60.492 45.088c1.832 0 3.318-1.437 3.318-3.209s-1.486-3.209-3.318-3.209-3.318 1.437-3.318 3.209 1.486 3.209 3.318 3.209z" fill="#ebece9"/><path d="M60.492 45.401c-2.023 0-3.642-1.565-3.642-3.523s1.619-3.523 3.642-3.523 3.642 1.566 3.642 3.523-1.618 3.523-3.642 3.523zm0-6.458c-1.659 0-3.035 1.331-3.035 2.935s1.376 2.935 3.035 2.935 3.035-1.331 3.035-2.935-1.376-2.935-3.035-2.935zm1.416 12.368h-2.792c-.162 0-.283-.117-.283-.235l-.445-2.427a7.24 7.24 0 0 1-2.832-1.605l-2.387.861c-.121.039-.283 0-.364-.117l-1.416-2.348c-.081-.117-.041-.274.081-.352l1.942-1.565a6.99 6.99 0 0 1 0-3.17l-1.942-1.565c-.121-.078-.121-.235-.081-.352l1.416-2.348c.081-.117.243-.196.364-.117l2.387.861a7.24 7.24 0 0 1 2.832-1.605l.445-2.427c.04-.156.162-.235.283-.235h2.792c.162 0 .283.117.283.235l.445 2.427c1.052.313 2.023.861 2.832 1.566l2.387-.861c.121-.039.283 0 .364.117l1.416 2.348c.081.117.04.274-.081.352l-1.942 1.566a6.99 6.99 0 0 1 0 3.17l1.942 1.566c.121.078.121.235.081.352l-1.376 2.348c-.081.117-.243.157-.364.117l-2.428-.861c-.809.744-1.78 1.252-2.832 1.566L62.19 51c-.041.196-.162.313-.283.313zm-2.549-.587h2.266l.405-2.387c0-.117.121-.196.202-.235 1.092-.274 2.104-.861 2.913-1.605.081-.078.202-.117.324-.078l2.347.822 1.133-1.918-1.902-1.526c-.081-.039-.121-.157-.121-.235v-.078a6.32 6.32 0 0 0 0-3.248v-.078c0-.078.04-.157.121-.235l1.902-1.526-1.133-1.918-2.347.822c-.121.039-.243 0-.324-.078a6.44 6.44 0 0 0-2.913-1.605c-.121-.039-.202-.117-.202-.235l-.405-2.388h-2.266l-.405 2.388c0 .117-.121.196-.202.235a6.46 6.46 0 0 0-2.873 1.605c-.081.078-.202.117-.324.078l-2.347-.822-1.133 1.918 1.902 1.526c.081.039.121.157.121.235v.078c-.283 1.057-.283 2.192 0 3.249v.078c0 .078-.04.157-.121.235l-1.902 1.526 1.133 1.918 2.347-.822c.121-.039.243 0 .324.078a6.31 6.31 0 0 0 2.873 1.605c.121.039.202.117.202.235l.405 2.387z" fill="#244583"/><defs ><path id="B" d="M95.451 69.941H24.682c-2.023 0-3.682-1.605-3.682-3.562v-8.963c0-.313.243-.548.567-.548h77c.324 0 .566.235.566.548v8.963c0 1.957-1.659 3.522-3.682 3.562zM22.133 57.965v8.415c0 1.37 1.133 2.466 2.549 2.466h70.769c1.416 0 2.549-1.096 2.549-2.466v-8.415H22.133z"/><path id="C" d="M98.567 57.965h-77c-.324 0-.567-.235-.567-.548V14.716c0-1.957 1.659-3.562 3.682-3.523h70.769c2.023 0 3.642 1.605 3.642 3.523v42.701c.04.274-.243.548-.526.548zm-76.434-1.096h75.868V14.716c0-1.37-1.133-2.427-2.549-2.466H24.682c-1.416 0-2.549 1.096-2.549 2.466v42.153z"/></defs></svg>
